offer/images/computer.svg

<svg height="51" viewBox="0 0 51 51" width="51" xmlns="http://www.w3.org/2000/svg"><g fill="none" fill-rule="evenodd"><path d="m45.0234375 37.5527344v5.9765625c0 .8366191-.6573223 1.4941406-1.4941406 1.4941406-.8368184 0-1.4941407-.6575215-1.4941407-1.4941406v-5.9765625c0-.8368184-.6573222-1.4941406-1.4941406-1.4941406h-13.546875v7.4707031c0 .8366191-.6573222 1.4941406-1.4941406 1.4941406s-1.4941406-.6575215-1.4941406-1.4941406v-7.4707031h-13.546875c-.83681838 0-1.49414065.6573222-1.49414065 1.4941406v5.9765625c0 .8366191-.65732227 1.4941406-1.49414063 1.4941406-.83681835 0-1.49414062-.6575215-1.49414062-1.4941406v-5.9765625c0-2.4803731 2.00204883-4.4824219 4.4824219-4.4824219h13.546875v-4.6816406c0-.8368184.6573222-1.4941407 1.4941406-1.4941407s1.4941406.6573223 1.4941406 1.4941407v4.6816406h13.546875c2.4803731 0 4.4824219 2.0020488 4.4824219 4.4824219z" fill="#65b1fc"/><path d="m45.0234375 37.5527344v5.9765625c0 .8366191-.6573223 1.4941406-1.4941406 1.4941406-.8368184 0-1.4941407-.6575215-1.4941407-1.4941406v-5.9765625c0-.8368184-.6573222-1.4941406-1.4941406-1.4941406h-13.546875v7.4707031c0 .8366191-.6573222 1.4941406-1.4941406 1.4941406v-18.1289063c.8368184 0 1.4941406.6573223 1.4941406 1.4941407v4.6816406h13.546875c2.4803731 0 4.4824219 2.0020488 4.4824219 4.4824219z" fill="#1689fc"/><g fill="#00c8c8" transform="translate(0 42.035156)"><path d="m10.4589844 8.96484375h-5.97656252c-2.47170704 0-4.48242188-2.01071484-4.48242188-4.48242187 0-2.47170704 2.01071484-4.48242188 4.48242188-4.48242188h5.97656252c2.471707 0 4.4824218 2.01071484 4.4824218 4.48242188 0 2.47170703-2.0107148 4.48242187-4.4824218 4.48242187z"/><path d="m28.4882812 0h-5.9765624c-2.4803731 0-4.4824219 2.00204883-4.4824219 4.48242188 0 2.48017382 2.0020488 4.48242187 4.4824219 4.48242187h5.9765624c2.4803731 0 4.4824219-2.00224805 4.4824219-4.48242187 0-2.48037305-2.0020488-4.48242188-4.4824219-4.48242188z"/></g><g fill="#00a1b2" transform="translate(25.5 42.035156)"><path d="m21.0175781 8.96484375h-5.9765625c-2.471707 0-4.4824218-2.01071484-4.4824218-4.48242187 0-2.47170704 2.0107148-4.48242188 4.4824218-4.48242188h5.9765625c2.4717071 0 4.4824219 2.01071484 4.4824219 4.48242188 0 2.47170703-2.0107148 4.48242187-4.4824219 4.48242187z"/><path d="m7.47070312 4.48242188c0 2.48017382-2.00204882 4.48242187-4.48242187 4.48242187h-2.98828125v-8.96484375h2.98828125c2.48037305 0 4.48242187 2.00204883 4.48242187 4.48242188z"/></g><path d="m40.4414062 4.48242188v14.94140622h-29.8828124v-14.94140622c0-1.64355469 1.3447265-2.98828126 2.9882812-2.98828126h23.90625c1.6435547 0 2.9882812 1.34472657 2.9882812 2.98828126z" fill="#e1f1fa"/><g fill="#0053bf" transform="translate(9.064453)"><path d="m23.7568359 27.7311504-2.9882812-5.9765625c-.2689453-.5079082-.7769531-.8366191-1.3447266-.8366191h-5.9765625c-.5677734 0-1.0757812.3287109-1.3447265.8366191l-2.98828129 5.9765625c-.11943164.2690449-.17929687.5378906-.11943164.8368184h14.88154103c.0597656-.2989278 0-.5677735-.1195313-.8368184z"/><path d="m28.3886719 0h-23.90625002c-2.48037305 0-4.48242188 2.00204883-4.48242188 4.48242188v13.44726562l3.8547832 2.9882813h25.0417969l3.9745137-2.9882813v-13.44726562c0-2.48037305-2.0020489-4.48242188-4.4824219-4.48242188zm1.4941406 17.9296875h-26.89453125v-13.44726562c0-.83681836.65732227-1.49414063 1.49414063-1.49414063h23.90625002c.8368183 0 1.4941406.65732227 1.4941406 1.49414063z" fill-rule="nonzero"/></g><path d="m32.9408203 28.5679688h-7.4408203v-7.65h2.9882812c.5677735 0 1.0757813.3287109 1.3447266.8366191l2.9882813 5.9765625c.1195312.2690449.1792968.5378906.1195312.8368184z" fill="#05377f"/><path d="m40.4414062 4.48242188v14.94140622h-14.9414062v-17.92968748h11.953125c1.6435547 0 2.9882812 1.34472657 2.9882812 2.98828126z" fill="#bfe1ff"/><path d="m41.9355469 4.48242188v13.44726562l-3.9745137 2.9882813h-12.4610332v-2.9882813h13.4472656v-13.44726562c0-.83681836-.6573222-1.49414063-1.4941406-1.49414063h-11.953125v-2.98828125h11.953125c2.480373 0 4.4824219 2.00204883 4.4824219 4.48242188z" fill="#05377f"/><g fill="#2864f0" transform="translate(9.064453 17.929688)"><path d="m0 0v1.49414062c0 2.48017383 2.00204883 4.48242188 4.48242188 4.48242188h23.90625002c2.480373 0 4.4824219-2.00224805 4.4824219-4.48242188v-1.49414062z"/><path d="m26.8945312 10.4589844c0 .8366191-.6573222 1.4941406-1.4941406 1.4941406h-17.92968748c-.83681835 0-1.49414062-.6575215-1.49414062-1.4941406 0-.83681838.65732227-1.49414065 1.49414062-1.49414065h17.92968748c.8368184 0 1.4941406.65732227 1.4941406 1.49414065z"/></g><g fill="#0053bf" transform="translate(25.5 17.929688)"><path d="m11.953125 5.9765625h-11.953125v-5.9765625h16.4355469v1.49414062c0 2.48017383-2.0020489 4.48242188-4.4824219 4.48242188z"/><path d="m10.4589844 10.4589844c0 .8366191-.65732229 1.4941406-1.49414065 1.4941406h-8.96484375v-2.98828125h8.96484375c.83681836 0 1.49414065.65732227 1.49414065 1.49414065z"/></g></g></svg>

<?xml version="1.0" encoding="UTF-8"?>
<svg width="51px" height="51px" viewBox="0 0 51 51" version="1.1" xmlns="http://www.w3.org/2000/svg" xmlns:xlink="http://www.w3.org/1999/xlink">
    <!-- Generator: Sketch 52.2 (67145) - http://www.bohemiancoding.com/sketch -->
    <title>computer</title>
    <desc>Created with Sketch.</desc>
    <g id="Page-1" stroke="none" stroke-width="1" fill="none" fill-rule="evenodd">
        <g id="offer" transform="translate(-497.000000, -7835.000000)">
            <g id="computer" transform="translate(497.000000, 7835.000000)">
                <path d="M45.0234375,37.5527344 L45.0234375,43.5292969 C45.0234375,44.365916 44.3661152,45.0234375 43.5292969,45.0234375 C42.6924785,45.0234375 42.0351562,44.365916 42.0351562,43.5292969 L42.0351562,37.5527344 C42.0351562,36.715916 41.377834,36.0585938 40.5410156,36.0585938 L26.9941406,36.0585938 L26.9941406,43.5292969 C26.9941406,44.365916 26.3368184,45.0234375 25.5,45.0234375 C24.6631816,45.0234375 24.0058594,44.365916 24.0058594,43.5292969 L24.0058594,36.0585938 L10.4589844,36.0585938 C9.62216602,36.0585938 8.96484375,36.715916 8.96484375,37.5527344 L8.96484375,43.5292969 C8.96484375,44.365916 8.30752148,45.0234375 7.47070312,45.0234375 C6.63388477,45.0234375 5.9765625,44.365916 5.9765625,43.5292969 L5.9765625,37.5527344 C5.9765625,35.0723613 7.97861133,33.0703125 10.4589844,33.0703125 L24.0058594,33.0703125 L24.0058594,28.3886719 C24.0058594,27.5518535 24.6631816,26.8945312 25.5,26.8945312 C26.3368184,26.8945312 26.9941406,27.5518535 26.9941406,28.3886719 L26.9941406,33.0703125 L40.5410156,33.0703125 C43.0213887,33.0703125 45.0234375,35.0723613 45.0234375,37.5527344 Z" id="Path" fill="#65B1FC"></path>
                <path d="M45.0234375,37.5527344 L45.0234375,43.5292969 C45.0234375,44.365916 44.3661152,45.0234375 43.5292969,45.0234375 C42.6924785,45.0234375 42.0351562,44.365916 42.0351562,43.5292969 L42.0351562,37.5527344 C42.0351562,36.715916 41.377834,36.0585938 40.5410156,36.0585938 L26.9941406,36.0585938 L26.9941406,43.5292969 C26.9941406,44.365916 26.3368184,45.0234375 25.5,45.0234375 L25.5,26.8945312 C26.3368184,26.8945312 26.9941406,27.5518535 26.9941406,28.3886719 L26.9941406,33.0703125 L40.5410156,33.0703125 C43.0213887,33.0703125 45.0234375,35.0723613 45.0234375,37.5527344 Z" id="Path" fill="#1689FC"></path>
                <g id="Group" transform="translate(0.000000, 42.035156)" fill="#00C8C8">
                    <path d="M10.4589844,8.96484375 L4.48242188,8.96484375 C2.01071484,8.96484375 0,6.95412891 0,4.48242188 C0,2.01071484 2.01071484,0 4.48242188,0 L10.4589844,0 C12.9306914,0 14.9414062,2.01071484 14.9414062,4.48242188 C14.9414062,6.95412891 12.9306914,8.96484375 10.4589844,8.96484375 Z" id="Path"></path>
                    <path d="M28.4882812,0 L22.5117188,0 C20.0313457,0 18.0292969,2.00204883 18.0292969,4.48242188 C18.0292969,6.9625957 20.0313457,8.96484375 22.5117188,8.96484375 L28.4882812,8.96484375 C30.9686543,8.96484375 32.9707031,6.9625957 32.9707031,4.48242188 C32.9707031,2.00204883 30.9686543,0 28.4882812,0 Z" id="Path"></path>
                </g>
                <g id="Group" transform="translate(25.500000, 42.035156)" fill="#00A1B2">
                    <path d="M21.0175781,8.96484375 L15.0410156,8.96484375 C12.5693086,8.96484375 10.5585938,6.95412891 10.5585938,4.48242188 C10.5585938,2.01071484 12.5693086,0 15.0410156,0 L21.0175781,0 C23.4892852,0 25.5,2.01071484 25.5,4.48242188 C25.5,6.95412891 23.4892852,8.96484375 21.0175781,8.96484375 Z" id="Path"></path>
                    <path d="M7.47070312,4.48242188 C7.47070312,6.9625957 5.4686543,8.96484375 2.98828125,8.96484375 L0,8.96484375 L0,0 L2.98828125,0 C5.4686543,0 7.47070312,2.00204883 7.47070312,4.48242188 Z" id="Path"></path>
                </g>
                <path d="M40.4414062,4.48242188 L40.4414062,19.4238281 L10.5585938,19.4238281 L10.5585938,4.48242188 C10.5585938,2.83886719 11.9033203,1.49414062 13.546875,1.49414062 L37.453125,1.49414062 C39.0966797,1.49414062 40.4414062,2.83886719 40.4414062,4.48242188 Z" id="Path" fill="#E1F1FA"></path>
                <g id="Group" transform="translate(9.064453, 0.000000)" fill="#0053BF">
                    <path d="M23.7568359,27.7311504 L20.7685547,21.7545879 C20.4996094,21.2466797 19.9916016,20.9179688 19.4238281,20.9179688 L13.4472656,20.9179688 C12.8794922,20.9179688 12.3714844,21.2466797 12.1025391,21.7545879 L9.11425781,27.7311504 C8.99482617,28.0001953 8.93496094,28.269041 8.99482617,28.5679688 L23.8763672,28.5679688 C23.9361328,28.269041 23.8763672,28.0001953 23.7568359,27.7311504 Z" id="Path"></path>
                    <path d="M28.3886719,0 L4.48242188,0 C2.00204883,0 0,2.00204883 0,4.48242188 L0,17.9296875 L3.8547832,20.9179688 L28.8965801,20.9179688 L32.8710938,17.9296875 L32.8710938,4.48242188 C32.8710938,2.00204883 30.8690449,0 28.3886719,0 Z M29.8828125,17.9296875 L2.98828125,17.9296875 L2.98828125,4.48242188 C2.98828125,3.64560352 3.64560352,2.98828125 4.48242188,2.98828125 L28.3886719,2.98828125 C29.2254902,2.98828125 29.8828125,3.64560352 29.8828125,4.48242188 L29.8828125,17.9296875 Z" id="Shape" fill-rule="nonzero"></path>
                </g>
                <path d="M32.9408203,28.5679688 L25.5,28.5679688 L25.5,20.9179688 L28.4882812,20.9179688 C29.0560547,20.9179688 29.5640625,21.2466797 29.8330078,21.7545879 L32.8212891,27.7311504 C32.9408203,28.0001953 33.0005859,28.269041 32.9408203,28.5679688 Z" id="Path" fill="#05377F"></path>
                <path d="M40.4414062,4.48242188 L40.4414062,19.4238281 L25.5,19.4238281 L25.5,1.49414062 L37.453125,1.49414062 C39.0966797,1.49414062 40.4414062,2.83886719 40.4414062,4.48242188 Z" id="Path" fill="#BFE1FF"></path>
                <path d="M41.9355469,4.48242188 L41.9355469,17.9296875 L37.9610332,20.9179688 L25.5,20.9179688 L25.5,17.9296875 L38.9472656,17.9296875 L38.9472656,4.48242188 C38.9472656,3.64560352 38.2899434,2.98828125 37.453125,2.98828125 L25.5,2.98828125 L25.5,0 L37.453125,0 C39.933498,0 41.9355469,2.00204883 41.9355469,4.48242188 Z" id="Path" fill="#05377F"></path>
                <g id="Group" transform="translate(9.064453, 17.929688)" fill="#2864F0">
                    <path d="M0,0 L0,1.49414062 C0,3.97431445 2.00204883,5.9765625 4.48242188,5.9765625 L28.3886719,5.9765625 C30.8690449,5.9765625 32.8710938,3.97431445 32.8710938,1.49414062 L32.8710938,0 L0,0 Z" id="Path"></path>
                    <path d="M26.8945312,10.4589844 C26.8945312,11.2956035 26.237209,11.953125 25.4003906,11.953125 L7.47070312,11.953125 C6.63388477,11.953125 5.9765625,11.2956035 5.9765625,10.4589844 C5.9765625,9.62216602 6.63388477,8.96484375 7.47070312,8.96484375 L25.4003906,8.96484375 C26.237209,8.96484375 26.8945312,9.62216602 26.8945312,10.4589844 Z" id="Path"></path>
                </g>
                <g id="Group" transform="translate(25.500000, 17.929688)" fill="#0053BF">
                    <path d="M11.953125,5.9765625 L0,5.9765625 L0,0 L16.4355469,0 L16.4355469,1.49414062 C16.4355469,3.97431445 14.433498,5.9765625 11.953125,5.9765625 Z" id="Path"></path>
                    <path d="M10.4589844,10.4589844 C10.4589844,11.2956035 9.80166211,11.953125 8.96484375,11.953125 L0,11.953125 L0,8.96484375 L8.96484375,8.96484375 C9.80166211,8.96484375 10.4589844,9.62216602 10.4589844,10.4589844 Z" id="Path"></path>
                </g>
            </g>
        </g>
    </g>
</svg>
